X: 7
T: The First of September  v.2
P: Piffero secondo b0023
O: safd 102
F: http://ancients.sudburymuster.org/mus/ssp/pdf/brandywF.pdf
Z: 2019 John Chambers <jc:trillian.mit.edu>
M: 2/4
L: 1/16
K: D
z2 |\
d2A2 F2EF | F6 d2 | c2B2 A2G2 | FEFG F4 |\
F8        | G8    | FGFE dedc | d4   d2 :|
|: z2 |\
F3G FGFE | D2F2 F2d2 | e2d2 c2B2 | A8 |\
F3G FGFE | D2F2 F2d2 | EGFE AGFE | F4 F2 :|


